!!!!SEGMENT: pl-wtm--a-30-167-77_bauerfeind-wladyslaw--elly.krn
!!!cenid: 19xx:31
!!!COM: Bauerfeind, Władysław
!!!COM-rismID: pe50046019
!!!CDT: 1880-1939
!!!CNT: Polish
!!!OTL: Elly
!!!PDT:
!!!AGN: Secular
!!!YEC: Copyright 2022 Narodowy Instytut Fryderyka Chopina (https://polishscores.org)
!!!YEM: License CC-BY-4.0 (https://creativecommons.org/licenses/by/4.0)
!!!SMS-siglum: PL-Wtm
!!!SMS-shelfmark: A.30.167/77
!!!SMS-variant:
!!!SMS-altvar:
!!!SMS-shelfwork: W


!!!NIFC-rismSourceID: 1001199370
!!!NIFC-rismChildID: 1001199370
!!!NIFC-islandoraID: pl-wtm:95566
!!!URL-pdf-islandora: https://repozytorium.nifc.pl/islandora/object/pl-wtm%3A95566/datastream/PDF/view
!!!URL-scan: https://polish.musicsources.pl/pl/lokalizacje/galeria/druki-muzyczne/20595/2 @EN{Scan on Polish Music Sources Website} @PL{Skany w portalu Dziedzictwo Muzyki Polskiej w otwartym dostępie}
!!!IIIF:
!!!ONB-nifc:
!!!AIN: 2 piano
!!!key: c
**kern	**kern	**dynam
*part2	*part1	*part1
*staff2	*staff1	*
*I"PIANO	*I"PIANO	*
*I'[pf]	*I'[pf]	*
*ICklav	*ICklav	*
*Ipiano	*Ipiano	*
*clefF4	*clefG2	*
*>[A,B,A]	*>[A,B,A]	*
*>A	*>A	*
*k[b-e-a-]	*k[b-e-a-]	*
*c:	*c:	*
*M2/4	*M2/4	*
=1	=1	=1
!	!LO:TX:a:B:t=Tempo di one-step.	!
8CC\L 8C	8r	f
8G\J 8c 8e-	8g\L 8cc 8ee- 8gg	<
8F#X\L 8c 8e-	8a-\ 8cc 8ee- 8aa-	.
8G\J 8c 8e-	8g\J 8cc 8ee- 8gg	.
=2	=2	=2
8A-'\ 8c 8e-	8f#X'\L 8cc 8ee- 8ff#X	.
8r	16r	[
.	(16ee-\Jk	.
4r	8dd\L	.
.	8cc\J)	>
=3	=3	=3
8G\	8g/L 8bn 8dd	.
8r	8Bn/J 8d 8f 8g	.
4FF/ 4F	8r	.
.	8G/ 8B 8d 8g	.
=4	=4	=4
4EE-/ 4E-	8r	.
.	8G/ 8c 8e- 8g	.
4DD/ 4D	8r	.
.	8G/ 8Bn 8f 8g	]]
!	!LO:TX:a:rj:t=[segno]	!
=5||	=5||	=5||
8CC/ 8C	8r	p
4r	8G/ 8c 8e- 8g	.
.	4A-^/ 4c 4e- 4a-	.
16r	.	.
16EE-/ 16E-	.	.
=6	=6	=6
8CC/ 8C	8r	.
4r	8G/ 8c 8e- 8g	.
.	4F#X^/ 4c 4e- 4f#X	<
16r	.	.
16AAA-/ 16AA-	.	.
!!LO:LB:g=original	!	!
=7	=7	=7
8BBBn/ 8BBn	8r	.
4r	8G/ 8Bn 8d 8g	.
.	8.A-^/L 8.B 8.d 8.a-	.
16r	.	.
16DD/	16G/Jk 16B 16d 16g	[[
=8	=8	=8
8GGG/L 8GG	8G'/L 8Bn 8d 8g	f
16r	16r	.
(16GG/Jk	(16G/Jk	.
8.AA-^/L	8.A-^/L	.
16GG/Jk)	16G/Jk)	.
=9	=9	=9
8CC/ 8C	8r	p
4r	8G/ 8c 8e- 8g	.
.	4A-^/ 4c 4e- 4a-	.
16r	.	.
16EE-/ 16E-	.	.
=10	=10	=10
8CC/ 8C	8r	.
4r	8G/ 8c 8e- 8g	.
.	4F#X^/ 4c 4e- 4f#X	<
16r	.	.
16AAA-/ 16AA-	.	.
=11	=11	=11
8BBBn/ 8BBn	8r	.
4r	8G/ 8Bn 8d 8g	.
.	8.A-/L 8.B 8.d 8.a-	.
16r	.	.
16DD/	16G/Jk 16B 16d 16g	[[
=12	=12	=12
8GGG'/L 8GG	8G'/L 8Bn 8d 8g	f
16r	16r	.
(16GG/Jk	(16G/Jk	.
8.AA-^/L	8.A-^/L	.
16GG/Jk)	16G/Jk)	.
!!LO:LB:g=original	!	!
=13	=13	=13
8EEn/ 8En	8r	p
4r	(8c/ 8en 8g 8cc	<
.	4d-X^/) 4e 4g 4dd-X	.
16r	.	.
16CC/ 16C	.	.
=14	=14	=14
8EEn/ 8En	8r	.
4r	(8c/ 8en 8g 8cc	.
.	4c-X^/) 4e 4g 4cc-X	[[
16r	.	.
16CC/ 16C	.	.
=15	=15	=15
8FF/ 8F	8r	>
4r	(8B-/ 8f 8b-	.
.	4A-^/) 4cn 4f 4a-	.
16r	.	.
16AAA-/ 16AA-	.	.
=16	=16	=16
2FFF/ 2FF	8r	.
.	(8F/ 8A- 8c 8f	.
.	8G/L 8c 8g	.
.	8A-/J) 8c 8a-	]
=17	=17	=17
8r	4G^/ 4B- 4e- 4g	f <
8BBB-/ 8BB-	.	.
8r	4B-^/ 4e- 4g 4b-	.
8BBB-/ 8BB-	.	.
=18	=18	=18
8r	4B-^/ 4c#X 4en 4b-	.
8BBB-/ 8BB-	.	.
8r	4B-^/ 4d 4f 4b-	.
8BBB-/ 8BB-	.	.
!!LO:LB:g=original	!	!
=19	=19	=19
4r	8B-/ 8d 8f 8b-	.
.	4B--^/ 4d 4f 4b--	[
4BBB-/ 4BB-	.	.
.	8A-/ 8d 8f 8a-	>
=20	=20	=20
4r	8F/ 8G 8Bn 8g	.
.	4F^/ 4G 4B 4f	.
4BBBn/ 4BBn	.	.
.	8F/ 8G 8B 8d	]]
=21	=21	=21
8CC/ 8C	8c/L	p
4r	8G/J 8c 8e- 8g	.
.	4A-^/ 4c 4e- 4a-	.
16r	.	.
16EE-/ 16E-	.	.
=22	=22	=22
8CC/ 8C	8r	.
4r	8G/ 8c 8e- 8g	.
.	4F#X^/ 4c 4e- 4f#X	.
16r	.	.
16AAA-/ 16AA-	.	.
=23	=23	=23
8BBBn/ 8BBn	8r	.
4r	8G/ 8Bn 8d 8g	<
.	8.A-^/L 8.B 8.d 8.a-	.
16r	.	.
16DD/	16G/Jk 16B 16d 16g	[[
=24	=24	=24
8GGG/L 8GG	8G'/L 8Bn 8d 8g	f
16r	16r	.
(16GG/Jk	(16G/Jk	.
!LO:N:vis=8	!	!
8.AA-^/L	8.A-^/L	.
16GG/Jk)	16G/Jk)	.
!!LO:LB:g=original	!	!
=25	=25	=25
8CC/ 8C	8r	p
4r	8G/ 8c 8e- 8g	.
.	4A-^/ 4c 4e- 4a-	.
16r	.	.
16EE-/ 16E-	.	.
=26	=26	=26
8CC/ 8C	8r	.
4r	8G/ 8c 8e- 8g	.
.	4F#X^/ 4c 4e- 4f#X	.
16r	.	.
16AAA-/ 16AA-	.	.
=27	=27	=27
8BBBn/ 8BBn	8r	<
4r	8G/ 8Bn 8d 8g	.
.	8.A-^/L 8.B 8.d 8.a-	.
16r	.	.
16DD/	16G/Jk 16B 16d 16g	[[
=28	=28	=28
8GGG'/L 8GG	8G'/L 8Bn 8d 8g	f
16r	16r	.
(16GG/Jk	(<16G/Jk	.
!	!LO:N:vis=8	!
8.AA-^/L	8.A-^/L	.
16GG/Jk)	16G/Jk)	.
=29	=29	=29
8EEn/ 8En	8r	p
4r	(8c/ 8en 8g 8cc	<
.	4d-X^/) 4e 4g 4dd-X	.
16r	.	.
16CC/ 16C	.	.
=30	=30	=30
8EEn/ 8En	8r	.
4r	8c/ 8en 8g 8cc	.
.	4c-X^/ 4e 4g 4cc-X	.
16r	.	.
16CC/ 16C	.	.
!!LO:LB:g=original	!	!
=31	=31	=31
8FF/ 8F	8r	.
4r	(8B-/ 8f 8b-	.
.	4A-/) 4cn 4f 4a-	.
16r	.	.
16AAA-/ 16AA-	.	.
=32	=32	=32
2FFF/ 2FF	8r	.
.	(8F/ 8A- 8c 8f	.
.	8G/L 8c 8g	.
.	8A-/J) 8a-	.
=33	=33	=33
8r	4G^/ 4c 4e- 4g	.
8GGG/ 8GG	.	.
8r	4c^/ 4e- 4cc	.
8GGG/ 8GG	.	.
=34	=34	=34
8r	4e-^/ 4g 4ee-	.
8GGG/ 8GG	.	.
8r	4d^/ 4f 4dd	.
8GGG/ 8GG	.	.
=35	=35	=35
8CC'/L 8C	8c'/L 8e- 8cc	.
16r	16r	.
16A-/Jk	16a-/JJ	.
8G\L	8g/L	.
8E-\J	8e-/J	.
=36	=36	=36
8C/	8c/	.
8r	8r	[
!	!LO:TX:b:i:t=Fine.	!
8CC/ 8C	8c/ 8e- 8g 8cc	.
8r	8r	.
!!LO:PB:g=original	!	!
*kcancel	*kcancel	*
=37||	=37||	=37||
*>B	*>B	*
*k[]	*k[]	*
!LO:TX:t=P:problem:mixed beam	!	!
8CC/L 8C	8r	f
8G\J 8c 8e	8g\ 8cc 8ee 8gg	.
4F#X^\ 4c 4d#X	4a^\ 4cc 4dd#X 4aa	.
=38	=38	=38
!LO:TX:t=P:problem:mixed beam	!	!
8CC/L 8C	8r	.
8G\J 8c 8e	8g\ 8cc 8ee 8gg	.
4F#X^\ 4c 4d#X	4f#X^\ 4cc 4dd#X 4ff#X	.
=39	=39	=39
!LO:TX:t=P:problem:mixed beam	!	!
8GGG/L 8GG	8r	ff
8G^>\J 8B 8dn 8f	8g^\ 8b 8ddn 8gg	>
8r	8r	.
8G\	8d/ 8fn 8b	]]
=40	=40	=40
16GGG/KL 16GG	8r	p
16r	.	.
(8G/J	(8g/	.
8A-X\L	8a-X^/L	.
8G\J)	8g/J)	.
=41	=41	=41
!LO:TX:t=P:problem:mixed beam	!	!
8CC/L 8C	8r	f
8G\J 8c 8e	8g\ 8cc 8ee 8gg	.
4F#X^\ 4c 4d#X	4a^\ 4cc 4dd#X 4aa	.
!!LO:LB:g=original	!	!
=42	=42	=42
!LO:TX:t=P:problem:mixed beam	!	!
8CC/L 8C	8r	.
8G\J 8c 8e	8g\ 8cc 8ee 8gg	.
4F#X^\ 4c 4d#X	4f#X^\ 4cc 4dd#X 4ff#X	.
=43	=43	=43
!LO:TX:t=P:problem:mixed beam	!	!
*	*	*^
!	!	!LO:DY:b	!
8GGG/L 8GG	8r	ff	.
!	!	!	!LO:HP:a
8G^>\J 8B 8dn 8f	8g^\ 8b 8ddn 8gg	.	>
8r	8r	.	.
!	!	!LO:DY:b	!
8GG/ 8G	8d/ 8fn 8b	f	.
=44	=44	=44	=44
8GG#X/L 8G#X	8d/L 8f 8b-X	.	.
8AA/J 8A	8d/J 8f 8a	.	.
8AA#X\L 8A#X	8d/L 8f 8a-X	.	.
8BB\J 8B	8d/J 8f 8g	.	]]
*	*	*v	*v
=45	=45	=45
8CC/ 8C	8r	.
4Gn^>\ 4B-X 4c 4e	4cc^\ 4ee 4gg 4ccc	.
8G\ 8B- 8c 8e	8dd\ 8gg 8ddd	<
=46	=46	=46
8BBB-X/ 8BB-X	4dd\ 4gg 4ddd	.
4G\ 4B-X 4c 4e	.	.
.	4cc\ 4gg 4ccc	.
8G\ 8B- 8c 8e	.	.
!!LO:LB:g=original	!	!
=47	=47	=47
!LO:TX:t=P:problem:mixed beam	!	!
8AAA/L 8AA	8r	.
8A\J 8c 8f	8ff\ 8ccc 8fff	.
!LO:TX:t=P:problem:mixed beam	!	!
8AAA-X/L 8AA-X	8r	.
8A-X\J 8c 8f#X	8ff#X\ 8ccc 8ddd#X 8fff#X	.
=48	=48	=48
!LO:TX:t=P:problem:mixed beam	!	!
8GGG/L 8GG	8r	.
8G\J 8c 8e	8gg\ 8ccc 8eee 8ggg	.
!LO:TX:t=P:problem:mixed beam	!	!
8FFF#X/L 8FF#X	8r	.
8F#X\J 8c 8d#X	8aa\ 8ccc 8ddd#X 8aaa	[[
=49	=49	=49
8GGG'/L 8GG	8gg'\L 8ccc 8eee 8ggg	ff
16r	16r	.
(16G/Jk	(16g\Jk	f
8A\L	8a\L	.
8c\J	8cc\J	.
=50	=50	=50
*	*^	*
4e\)	4ee/)	8r	.
.	.	8f#X\ 8a 8cc	.
4d\	4dd/	8r	.
.	.	8f#\ 8a 8cc	.
=51	=51	=51	=51
4c\	(4cc/	8r	>
.	.	8d\ 8fn	.
(4G\	4b/	8r	.
.	.	8d\ 8f	]]
=52	=52	=52	=52
4A\	4a/	8r	>
.	.	8d\ 8f	.
4B\)	4g/)	8r	.
.	.	8d\ 8f	]]
*	*v	*v	*
!!LO:LB:g=original	!	!
=53	=53	=53
!LO:TX:t=P:problem:mixed beam	!	!
8CC/L 8C	8r	f
8G\J 8c 8e	8g\ 8cc 8ee 8gg	.
4F#X^\ 4c 4d#X	4a^\ 4cc 4dd#X 4aa	.
=54	=54	=54
!LO:TX:t=P:problem:mixed beam	!	!
8CC/L 8C	8r	.
8G\J 8c 8e	8g\ 8cc 8ee 8gg	.
4F#X^\ 4c 4d#X	4f#X^\ 4cc 4dd#X 4ff#X	.
=55	=55	=55
!LO:TX:t=P:problem:mixed beam	!	!
8GGG/L 8GG	8r	ff
8G^>\J 8B 8dn 8f	8g^\ 8b 8ddn 8gg	>
8r	8r	.
8G\	8d/ 8fn 8b	]]
=56	=56	=56
16GGG/KL 16GG	8r	p
16r	.	.
(8G/J	(8g/	.
8A-X\L	8a-X^/L	.
8G\J)	8g/J)	.
=57	=57	=57
!LO:TX:t=P:problem:mixed beam	!	!
8CC/L 8C	8r	f
8G\J 8c 8e	8g\ 8cc 8ee 8gg	.
4F#X^\ 4c 4d#X	4a^\ 4cc 4dd#X 4aa	.
!!LO:LB:g=original	!	!
=58	=58	=58
!LO:TX:t=P:problem:mixed beam	!	!
8CC/L 8C	8r	.
8G\J 8c 8e	8g\ 8cc 8ee 8gg	.
4F#X^\ 4c 4d#X	4f#X^\ 4cc 4dd#X 4ff#X	.
=59	=59	=59
!LO:TX:t=P:problem:mixed beam	!	!
8GGG/L 8GG	8r	ff
8G^>\J 8B 8dn 8f	8g^\ 8b 8ddn 8gg	.
8r	8r	.
8GG/ 8G	8d/ 8fn 8b	f >
=60	=60	=60
8GG#X\L 8G#X	8d/L 8f 8b-X	.
8AA\J 8A	8d/J 8f 8a	.
8AA#X\L 8A#X	8d/L 8f 8a-X	.
8BB\J 8B	8d/J 8f 8g	]]
=61	=61	=61
8CC/ 8C	8r	.
4Gn\ 4B-X 4c 4e	4cc^\ 4ee 4gg 4ccc	<
8G\ 8B- 8c 8e	8dd\ 8gg 8ddd	.
=62	=62	=62
8BBB-X/ 8BB-X	4dd\ 4gg 4ddd	.
4G\ 4B-X 4c 4e	.	.
.	4cc\ 4gg 4ccc	.
8G\ 8B- 8c 8e	.	.
!!LO:LB:g=original	!	!
=63	=63	=63
!LO:TX:t=P:problem:mixed beam	!	!
8AAA/L 8AA	8r	.
8A\J 8c 8f	8ff\ 8ccc 8fff	.
!LO:TX:t=P:problem:mixed beam	!	!
8AAA-X/L 8AA-X	8r	.
8A-X\J 8c 8f#X	8ff#X\ 8ccc 8ddd#X 8fff#X	.
=64	=64	=64
!LO:TX:t=P:problem:mixed beam	!	!
8GGG/L 8GG	8r	.
8G\J 8c 8e	8gg\ 8ccc 8eee 8ggg	.
!LO:TX:t=P:problem:mixed beam	!	!
8FFF#X/L 8FF#X	8r	.
8F#X\J 8c 8d#X	8aa\ 8ccc 8ddd#X 8aaa	[[
=65	=65	=65
8GGG/L 8GG	8gg'\L 8ccc 8eee 8ggg	ff
16r	16r	.
(16G/Jk	(16g\Jk	f
8A\L	8a\L	.
8c\J	8cc\J	.
=66	=66	=66
*	*^	*
4e\)	4ee/)	8r	.
.	.	8f#X\ 8a 8cc	.
4d\	4dd/	8r	.
.	.	8f#\ 8a 8cc	.
*	*v	*v	*
=67	=67	=67
8C'\L 8c	8e'/L 8g 8cc	.
16r	16r	.
16A\Jk	16a/Jk	.
8G\L	8g/L	.
8E\J	8e/J	.
=68	=68	=68
8C/	8c/	.
8r	8r	.
8CC/ 8C	8cc\ 8ee 8gg 8ccc	.
!	!LO:TX:b:i:t=Da Capo dal [segno] al Fine.	!
8r	8r	.
==	==	==
*-	*-	*-
!!!system-decoration: {(s1,s2)}
!!!RDF**kern: > = above
!!!RDF**kern: < = below
!!!ENC: Berenika Jozajtis
!!!END: 2023-08-25
!!!ENC: Jan Barakat
!!!END: 2023-09-20
